X:13
T: Der verkleidete Markgrafensohn
N: Q0006E
O: Mitteleuropa, Deutschland / Frankreich, Lothringen, Weiler
N: Version mit zwei Sechzehnteln kodiert (gleichberechtigte Fassungen)
R: Ballade, Braut - Werbung
M: 3/4
L: 1/16
K: G
D2 | D2D2G4F2E2 | F2G2A4z2
A2 | B2A2G4F4 | E4D4z2
A2 | (3A2A2B2A2A2d4 | (3c2B2A2G4A2 |
B2 | cBA2B4A2G2 | F4G4z2

@@@ Tune index: 642
